icons/mobile/24/svg/data-clearance-24.svg

<svg width="24" height="24" viewBox="0 0 24 24" fill="none" xmlns="http://www.w3.org/2000/svg">
<path fill-rule="evenodd" clip-rule="evenodd" d="M7.5415 2.0791C7.89734 2.12211 8.25342 2.19746 8.59228 2.31641C12.0489 3.5264 14.3261 6.05482 15.0142 9.14453L16.4888 7.87793C16.6688 7.72493 16.9032 7.6469 17.1392 7.6709C17.3751 7.69192 17.5918 7.80923 17.7397 7.99219C20.6287 11.5721 20.7651 16.6278 18.0542 19.2969C16.7882 20.8659 14.7679 21.8175 12.3599 21.9775C12.1239 21.9935 11.8877 22 11.6538 22C9.22589 21.9999 6.89196 21.1716 5.437 19.7666C3.44824 17.8457 2.76439 15.4672 3.51122 13.0693C3.77722 12.2163 4.79342 10.3801 5.41942 9.61914C6.97034 7.54017 6.56764 4.95613 5.95165 3.16016C5.85968 2.89224 5.90299 2.59815 6.06786 2.36719C6.23181 2.13826 6.49687 2.00106 6.77978 2.00098C6.77978 2.00098 7.1575 2.0331 7.5415 2.0791ZM7.98388 3.9082C8.44784 5.95517 8.45233 8.48031 6.79638 10.6982C6.28841 11.3162 5.3822 12.9458 5.18212 13.5889C4.48917 15.8117 5.59888 17.4908 6.65282 18.5088C7.28551 19.1199 8.1711 19.5919 9.17626 19.8896C9.13535 19.5089 9.10985 19.1403 9.10985 18.8076C9.10993 16.0128 9.96945 14.0918 11.3374 13.0889C11.4183 13.03 11.5082 13.002 11.5972 13.002V13H11.603V13.002C11.6929 13.002 11.7819 13.03 11.8628 13.0889C13.2307 14.0918 14.0903 16.0138 14.0903 18.8076C14.0903 19.1472 14.0643 19.5241 14.022 19.9131C15.1493 19.5699 16.0784 18.9747 16.7192 18.165C16.7432 18.1351 16.7694 18.1051 16.7974 18.0781C18.7073 16.2341 18.7037 12.6192 16.9077 9.8252L14.9018 11.5488C14.6419 11.7718 14.2763 11.8206 13.9663 11.6797C13.6553 11.5367 13.4556 11.2268 13.4556 10.8848C13.4555 7.88385 11.2808 5.14217 7.98388 3.9082Z" fill="black"/>
</svg>

<!-- This Source Code Form is subject to the terms of the Mozilla Public
   - License, v. 2.0. If a copy of the MPL was not distributed with this
   - file, You can obtain one at http://mozilla.org/MPL/2.0/. -->
<svg xmlns="http://www.w3.org/2000/svg" width="24" height="24" fill="none" viewBox="0 0 24 24">
    <path fill="#000" fill-rule="evenodd" d="M7.542 2.08c.355.042.711.117 1.05.236 3.457 1.21 5.734 3.739 6.422 6.829l1.475-1.267a.873.873 0 0 1 1.25.114c2.89 3.58 3.026 8.636.315 11.305-1.266 1.569-3.286 2.52-5.694 2.68a11 11 0 0 1-.706.023c-2.428 0-4.762-.828-6.217-2.233-1.989-1.921-2.673-4.3-1.926-6.698.266-.853 1.282-2.689 1.908-3.45C6.97 7.54 6.568 4.956 5.952 3.16a.874.874 0 0 1 .828-1.159s.377.032.761.078m.442 1.828c.464 2.047.468 4.572-1.188 6.79-.508.618-1.414 2.248-1.614 2.89-.693 2.224.417 3.903 1.47 4.92.634.612 1.52 1.084 2.524 1.382-.04-.381-.066-.75-.066-1.082 0-2.795.86-4.716 2.227-5.72a.44.44 0 0 1 .26-.086V13h.006v.002q.137 0 .26.087c1.368 1.003 2.227 2.925 2.227 5.719 0 .34-.026.716-.068 1.105 1.127-.343 2.056-.938 2.697-1.748q.036-.046.078-.087c1.91-1.844 1.907-5.459.11-8.253l-2.005 1.724a.875.875 0 0 1-1.446-.664c0-3.001-2.175-5.743-5.472-6.977" clip-rule="evenodd" />
</svg>
